!!!!SEGMENT: pl-sa--134-a-iii-34--001_graun-carl-heinrich--sancte-pater-francisce.krn
!!!cenid: 17xx:614
!!!COM: Graun, Carl Heinrich
!!!COM-rismid: pe30001351
!!!CDT: 1704/05/07-1759/08/08
!!!CNT: German
!!!OTL: Sancte Pater Francisce
!!!PDT:
!!!AGN: Sacred
!!!SMS-siglum: PL-SA
!!!SMS-shelfmark: 134/A III 34
!!!SMS-shelfwork: 001 W
!!!SMS-variant:
!!!SMS-altvar:
!!!NIFC-rismid: 1001041280
!!!URL-scan: http://bc.bdsandomierz.pl/dlibra/publication/1491/edition/1459/content
!!!ONB-nifc:
**kern	**fba	**dynam	**kern	**dynam	**kern	**dynam	**kern	**dynam	**kern	**text
*part5	*	*part17	*part4	*part4	*part3	*part3	*part2	*part2	*part1	*part1
*staff5	*	*	*staff4	*	*staff3	*	*staff2	*	*staff1	*staff1
*group3	*	*	*group2	*	*group2	*	*group2	*	*group1	*
*Iempty	*	*	*Iviola	*	*Ivioln	*	*Ivioln	*	*Iempty	*
*I"Bafso.	*	*	*I"Viola.	*	*I"Violino 2do.	*	*I"Violino Imo	*	*	*
*I'b	*	*	*I'vla	*	*I'vl 2	*	*I'vl 1	*	*	*
*clefF4	*	*	*clefC3	*	*clefG2	*	*clefG2	*	*clefC1	*
*	*	*	*	*	*	*	*	*	*	*
*k[f#]	*	*	*k[f#]	*	*k[f#]	*	*k[f#]	*	*k[f#]	*
*G:	*	*	*G:	*	*G:	*	*G:	*	*G:	*
*M3/4	*	*	*M3/4	*	*M3/4	*	*M3/4	*	*M3/4	*
=1	=1	=1	=1	=1	=1	=1	=1	=1	=1	=1
!	!	!	!	!	!LO:TX:a:t=problem:krzyżyki ff# i f# jeden nad drugim	!	!	!	!LO:TX:a:t=Cantata.	!
!	!	!	!LO:TX:a:t=Aria Ima	!	!LO:TX:a:t=Vivace	!	!LO:TX:a:t=Vivace	!	!LO:TX:a:t=22	!
!LO:TX:a:t=Aria Ima	!	!	!LO:TX:a:t=Vivace.	!	!LO:TX:a:t=Aria Ima	!	!LO:TX:a:t=Aria Ima	!	!LO:TX:a:t=Aria Ima	!
!	!	!	!	!	!	!	!	!	!LO:TX:a:t=problem:brak nazwy partii	!
!	!	!	!	!	!	!	!	!	!LO:N:vis=00	!
4G\	.	.	4B/	.	4dd\	.	4dd\	.	0.r	.
4r	.	.	4r	.	8cc\L	.	8cc\L	.	.	.
.	.	.	.	.	8b\	.	8b\	.	.	.
4r	.	.	4r	.	8a\	.	8a\	.	.	.
.	.	.	.	.	8g\J	.	8g\J	.	.	.
=2	=2	=2	=2	=2	=2	=2	=2	=2	=2	=2
8r	.	.	8r	.	4ee\	.	4ee\	.	.	.
!	!	!	!LO:TX:a:t=problem: mixed beam	!	!	!	!	!	!	!
8c\L	.	.	8c/L	.	.	.	.	.	.	.
*	*	*	*	*	*2\right	*	*2\right	*	*	*
!	!	!	!	!	!LO:TX:a:t=problem:główki półnut w kształcie rombu	!	!LO:TX:a:t=problem:główki półnut w kształcie rombu	!	!	!
8B\	.	.	8B/	.	2dd\	.	2dd\	.	.	.
8A\	.	.	8A/	.	.	.	.	.	.	.
8B\	.	.	8B/	.	.	.	.	.	.	.
8G\J	.	.	8g\J	.	.	.	.	.	.	.
=3	=3	=3	=3	=3	=3	=3	=3	=3	=3	=3
8A\L	6	.	8f#\L	.	4cc\	.	4cc\	.	.	.
8F#\J	.	.	8a\J	.	.	.	.	.	.	.
4G\	.	.	4d\	.	8b\L	.	8b\L	.	.	.
.	.	.	.	.	8dd\	.	8dd\	.	.	.
4BB/	.	.	4d\	.	8g\	.	8g\	.	.	.
.	.	.	.	.	8b\J	.	8b\J	.	.	.
=4	=4	=4	=4	=4	=4	=4	=4	=4	=4	=4
4D\	.	.	4f#\	.	4a/	.	4a/	.	.	.
8GG/L	.	.	4g\	.	4g/	.	4g/	.	.	.
8BB/	.	.	.	.	.	.	.	.	.	.
8D/	.	.	4r	.	4r	.	4r	.	.	.
8G/J	.	.	.	.	.	.	.	.	.	.
=5	=5	=5	=5	=5	=5	=5	=5	=5	=5	=5
!	!	!	!	!	!	!	!	!	!LO:N:vis=00	!
4GG/	.	.	4G/	.	8r	.	8r	.	0.r	.
.	.	.	.	.	8g/L	.	8g/L	.	.	.
4r	.	.	4r	.	8b/	.	8b/	.	.	.
.	.	.	.	.	8a/	.	8a/	.	.	.
4r	.	.	4r	.	8b/	.	8b/	.	.	.
.	.	.	.	.	8cc#X/J	.	8cc#X/J	.	.	.
=6	=6	=6	=6	=6	=6	=6	=6	=6	=6	=6
8r	.	.	8r	.	4dd\	.	4dd\	.	.	.
!LO:LB:g=original	!	!	!	!	!	!	!	!	!	!
8D\L	.	.	8f#\L	.	.	.	.	.	.	.
8F#\	.	.	8a\	.	4d/	.	4d/	.	.	.
8E\	.	.	8g\	.	.	.	.	.	.	.
8F#\	.	.	8a\	.	4dd\	.	[4dd\	.	.	.
8G\J	.	.	8b\J	.	.	.	.	.	.	.
=7	=7	=7	=7	=7	=7	=7	=7	=7	=7	=7
4A\	4	.	4e\	.	8dd\L	.	8dd\L]	.	.	.
.	.	.	.	.	16cc#X\L	.	16cc#X\L	.	.	.
.	.	.	.	.	16dd\JJ	.	16dd\JJ	.	.	.
4AA/	#	.	4c#X\	.	16ee\LL	.	16ee\LL	.	.	.
.	.	.	.	.	16dd\	.	16dd\	.	.	.
.	.	.	.	.	16cc#X\	.	16cc#X\	.	.	.
.	.	.	.	.	16b\JJ	.	16b\JJ	.	.	.
!	!	!	!	!	!LO:LB:g=original	!	!	!	!	!
4C#X/	6 5	.	4e\	.	8a/L	.	8a/L	.	.	.
.	.	.	.	.	8g/J	.	8g/J	.	.	.
=8	=8	=8	=8	=8	=8	=8	=8	=8	=8	=8
.	.	.	.	.	4qqg/	.	8qqg/	.	.	.
8r	.	.	8r	.	2f#/	.	2f#/	.	.	.
!	!	!	!LO:LB:g=original	!	!	!	!	!	!	!
8D/L	.	.	8d/L	.	.	.	.	.	.	.
8AA/	.	.	8A/	.	.	.	.	.	.	.
8D/	.	.	8d/	.	.	.	.	.	.	.
8FF#/	.	.	8F#/	.	4r	.	4r	.	.	.
8AA/J	.	.	8A/J	.	.	.	.	.	.	.
!	!	!	!	!	!	!	!LO:LB:g=original	!	!	!
=9	=9	=9	=9	=9	=9	=9	=9	=9	=9	=9
!	!	!	!	!	!	!	!	!	!LO:N:vis=00	!
4DD/	.	.	4D/	.	8r	.	8r	.	0.r	.
.	.	.	.	.	8dd\L	.	8dd\L	.	.	.
4r	.	.	4r	.	8ee\	.	8ee\	.	.	.
.	.	.	.	.	8dd\	.	8dd\	.	.	.
4r	.	.	4r	.	8ee\	.	8ee\	.	.	.
.	.	.	.	.	8ff#\J	.	8ff#\J	.	.	.
=10	=10	=10	=10	=10	=10	=10	=10	=10	=10	=10
8r	.	.	8r	.	4gg\	.	4gg\	.	.	.
8G\L	.	.	8b\L	.	.	.	.	.	.	.
8B\	.	.	8dd\	.	4g/	.	4g/	.	.	.
8A\	.	.	8cc\	.	.	.	.	.	.	.
8B\	.	.	8dd\	.	4gg\	.	4gg\	.	.	.
8c\J	.	.	8ee\J	.	.	.	.	.	.	.
=11	=11	=11	=11	=11	=11	=11	=11	=11	=11	=11
4d\	4	.	4a\	.	8gg\L	.	8gg\L	.	.	.
.	.	.	.	.	16ff#\L	.	16ff#\L	.	.	.
.	.	.	.	.	16gg\JJ	.	16gg\JJ	.	.	.
!LO:TX:a:t=problem:3.	!	!	!	!	!	!	!	!	!	!
4D\	3	.	4f#\	.	16aa\LL	.	16aa\LL	.	.	.
.	.	.	.	.	16gg\	.	16gg\	.	.	.
.	.	.	.	.	16ff#\	.	16ff#\	.	.	.
.	.	.	.	.	16ee\JJ	.	16ee\JJ	.	.	.
4F#\	6 5	.	4a\	.	8dd\L	.	8dd\L	.	.	.
.	.	.	.	.	8cc\J	.	8cc\J	.	.	.
=12	=12	=12	=12	=12	=12	=12	=12	=12	=12	=12
.	.	.	.	.	8qqcc/	.	8qqcc/	.	.	.
8r	.	.	8r	.	4b\	.	4b\	.	.	.
8G\	.	.	8g\	.	.	.	.	.	.	.
!	!	!	!LO:SIC:s=4G	!	!	!	!	!	!	!
4GG/	.	.	4F#/	.	8r	.	8r	.	.	.
!	!	!	!	!	!LO:TX:a:t=problem: mixed beam	!LO:DY:a	!	!LO:DY:a	!	!
!	!	!	!	!	!	!LO:DY:t=p	!	!	!	!
.	.	.	.	.	(>8ff#\L	p	(8ff#\L	p	.	.
4r	.	.	4r	.	8gg\	.	8gg\	.	.	.
.	.	.	.	.	8b/J)	.	8b\J)	.	.	.
=13	=13	=13	=13	=13	=13	=13	=13	=13	=13	=13
!	!	!	!	!	!	!	!	!	!LO:N:vis=00	!
8r	.	.	8r	.	(8b\L	.	(8b\L	.	0.r	.
!	!	!LO:DY:t=p	!	!	!	!	!	!	!	!
!	!	!LO:DY:a	!	!	!	!	!	!	!	!
8A\	.	p	8a\	.	8cc\J)	.	8cc\J)	.	.	.
4AA/	.	.	4A/	.	8r	.	8r	.	.	.
.	.	.	.	.	(8ff#\L	.	(8ff#\L	.	.	.
4r	.	.	4r	.	8gg\	.	8gg\	.	.	.
.	.	.	.	.	8cc#X\J)	.	8cc#X\J)	.	.	.
!LO:LB:g=original	!	!	!	!	!	!	!	!	!	!
=14	=14	=14	=14	=14	=14	=14	=14	=14	=14	=14
!	!	!	!	!	!LO:SIC:s=8cc	!	!LO:SIC:s=8cc#	!	!	!
8r	.	.	8r	.	(8cc#\L	.	(8cc\L	.	.	.
8B\	.	.	8b\	.	8dd\J)	.	8dd\J)	.	.	.
4BB/	.	.	4B/	.	8r	.	8r	.	.	.
.	.	.	.	.	(8ff#\L	.	(8ff#\L	.	.	.
4r	.	.	4r	.	8gg\	.	8gg\	.	.	.
.	.	.	.	.	8dd#X\J)	.	8dd#X\J)	.	.	.
=15	=15	=15	=15	=15	=15	=15	=15	=15	=15	=15
!	!	!	!	!	!LO:SIC:s=8dd#	!	!LO:SIC:s=8dd#	!	!	!
8r	.	.	8r	.	8dd\L	.	8dd\L	.	.	.
8c\	.	.	8cc\	.	8ee\J	.	8ee\J	.	.	.
4C/	.	.	4c/	.	8r	.	8r	.	.	.
!	!	!	!	!	!LO:LB:g=original	!	!	!	!	!
.	.	.	.	.	8ee\L	.	8ccc\L	.	.	.
4r	.	.	4r	.	8ddn\	.	8bb\	.	.	.
.	.	.	.	.	8cc\J	.	8aa\J	.	.	.
=16	=16	=16	=16	=16	=16	=16	=16	=16	=16	=16
!	!	!	!	!	!	!LO:DY:a	!	!LO:DY:t=for	!	!
!	!	!	!	!	!	!LO:DY:t=fo	!	!LO:DY:a	!	!
8r	.	.	8r	.	4aT\	f	4ff#t\	f	.	.
!	!	!	!LO:LB:g=original	!	!	!	!	!	!	!
!LO:TX:a:t=problem: mixed beam	!	!LO:DY:a	!LO:TX:a:t=problem: mixed beam	!	!	!	!	!	!	!
8D\L	.	f	8d\L	.	.	.	.	.	.	.
8F#\	.	.	8f#\	.	4aM\	.	4ff#t\	.	.	.
8A\	.	.	8a\	.	.	.	.	.	.	.
8c\	.	.	8cc\	.	4aM\	.	4ff#t\	.	.	.
8D/J	.	.	8d/J	.	.	.	.	.	.	.
=17	=17	=17	=17	=17	=17	=17	=17	=17	=17	=17
!	!	!	!	!	!	!	!	!	!LO:N:vis=00	!
8r	.	.	8r	.	4aT/	.	4ff#m\	.	0.r	.
!LO:TX:a:t=problem: mixed beam	!	!	!LO:TX:a:t=problem: mixed beam	!	!	!	!	!	!	!
8D\L	.	.	8d\L	.	.	.	.	.	.	.
8F#\	.	.	8f#\	.	4aM/	.	4ff#m\	.	.	.
8A\	.	.	8a\	.	.	.	.	.	.	.
8c\	.	.	8cc\	.	4aM/	.	4ff#m\	.	.	.
8D/J	.	.	8d/J	.	.	.	.	.	.	.
=18	=18	=18	=18	=18	=18	=18	=18	=18	=18	=18
4BB/	.	.	4d\	.	16gg\LL	.	16gg\LL	.	.	.
.	.	.	.	.	16bb\	.	16bb\	.	.	.
.	.	.	.	.	16aa\	.	16aa\	.	.	.
!	!	!	!	!	!	!	!LO:SIC:custos ff#	!	!	!
.	.	.	.	.	16gg\JJ	.	16gg\JJ	.	.	.
!	!	!	!	!	!	!	!LO:LB:g=original	!	!	!
4r	.	.	4r	.	16ff#\LL	.	16ff#\LL	.	.	.
.	.	.	.	.	16ee\	.	16ee\	.	.	.
.	.	.	.	.	16dd\	.	16dd\	.	.	.
.	.	.	.	.	16cc\JJ	.	16cc\JJ	.	.	.
4r	.	.	4r	.	16b/LL	.	16b/LL	.	.	.
.	.	.	.	.	16a/	.	16a/	.	.	.
.	.	.	.	.	16g/	.	16g/	.	.	.
.	.	.	.	.	16f#/JJ	.	16f#/JJ	.	.	.
=19	=19	=19	=19	=19	=19	=19	=19	=19	=19	=19
!	!	!	!	!	!LO:TX:a:t=problem:mixed beam	!	!LO:TX:a:t=problem:mixed beam	!	!	!
4C\	.	.	4c\	.	8e/L	.	8e/L	.	.	.
.	.	.	.	.	8cc\	.	8cc\	.	.	.
4D\	.	.	4d\	.	8b\	.	8b\	.	.	.
.	.	.	.	.	8dd\	.	8dd\	.	.	.
4DD/	.	.	4D/	.	8d/	.	8d/	.	.	.
.	.	.	.	.	8f#/J	.	8f#/J	.	.	.
=20	=20	=20	=20	=20	=20	=20	=20	=20	=20	=20
4GG/	.	.	4G/	.	16gg\LL	.	16gg\LL	.	.	.
.	.	.	.	.	16bb\	.	16bb\	.	.	.
.	.	.	.	.	16aa\	.	16aa\	.	.	.
.	.	.	.	.	16gg\JJ	.	16gg\JJ	.	.	.
4r	.	.	4r	.	16ff#\LL	.	16ff#\LL	.	.	.
.	.	.	.	.	16ee\	.	16ee\	.	.	.
.	.	.	.	.	16dd\	.	16dd\	.	.	.
.	.	.	.	.	16cc\JJ	.	16cc\JJ	.	.	.
4r	.	.	4r	.	16b/LL	.	16b/LL	.	.	.
.	.	.	.	.	16a/	.	16a/	.	.	.
.	.	.	.	.	16g/	.	16g/	.	.	.
.	.	.	.	.	16f#/JJ	.	16f#/JJ	.	.	.
=21	=21	=21	=21	=21	=21	=21	=21	=21	=21	=21
!	!	!	!	!	!LO:TX:a:t=problem:mixed beam	!	!LO:TX:a:t=problem:mixed beam	!	!LO:N:vis=0	!
4C\	.	.	4c\	.	8e/L	.	8e/L	.	1.r	.
.	.	.	.	.	8cc\	.	8cc\	.	.	.
4D\	.	.	4d\	.	8b\	.	8b\	.	.	.
.	.	.	.	.	8dd\	.	8dd\	.	.	.
4DD/	.	.	4D/	.	8d/	.	8d/	.	.	.
.	.	.	.	.	8f#/J	.	8f#/J	.	.	.
=22	=22	=22	=22	=22	=22	=22	=22	=22	=22	=22
!LO:TX:a:t=problem:główki półnut w kształcie rombu	!	!	!LO:TX:a:t=problem:główki półnut w kształcie rombu	!	!	!	!	!	!	!
2GG/	.	.	2G/	.	4g/	.	4g/	.	.	.
.	.	.	.	.	4G/	.	4G/	.	.	.
4r	.	.	4r	.	4r	.	4r	.	.	.
!LO:LB:g=original	!	!	!	!	!LO:LB:g=original	!	!	!	!	!
=23	=23	=23	=23	=23	=23	=23	=23	=23	=23	=23
!	!	!	!	!	!LO:TX:a:t=[segno]	!	!LO:TX:a:t=[segno]segno	!	!	!
!LO:TX:a:t=[segno]	!	!	!LO:TX:a:t=[segno]	!	!LO:TX:b:t=Vox	!	!LO:TX:b:t=vox	!LO:DY:a	!	!
4G\	.	.	4B/	.	4dd\	.	4dd\	p	4dd\	San-
!	!	!LO:DY:a	!	!LO:DY:a	!	!	!	!	!	!
4r	.	p	4r	p	8cc\L	.	8cc\L	.	8cc\	-cte
.	.	.	.	.	8b\	.	8b\	.	8b\	Pa-
4r	.	.	4r	.	8a\	.	8a\	.	8a/	-ter
.	.	.	.	.	8g\J	.	8g\J	.	8g/	Fran-
=24	=24	=24	=24	=24	=24	=24	=24	=24	=24	=24
8r	.	.	8r	.	4ee\	.	4ee\	.	4ee\	-ci-
!	!	!	!LO:TX:a:t=problem: mixed beam	!	!	!	!	!	!	!
8c\L	.	.	8c/L	.	.	.	.	.	.	.
*	*	*	*	*	*	*	*	*	*2\right	*
!	!	!	!	!	!	!	!	!	!LO:TX:a:t=problem:główka półnut w kształcie rombu	!
8B\	.	.	8B/	.	2dd\	.	2dd\	.	2dd\	-sce
8A\	.	.	8A/	.	.	.	.	.	.	.
8B\	.	.	8B/	.	.	.	.	.	.	.
8G\J	.	.	8g\J	.	.	.	.	.	.	.
!	!	!	!LO:LB:g=original	!	!	!	!	!	!	!
=25	=25	=25	=25	=25	=25	=25	=25	=25	=25	=25
8A\L	.	.	8f#\L	.	4cc\	.	4cc\	.	4cc\	au-
8F#\J	.	.	8a\J	.	.	.	.	.	.	.
4G\	.	.	4d\	.	8b\L	.	8b\L	.	8b\	-di
.	.	.	.	.	8dd\	.	8dd\	.	8dd\	vo-
4BB/	.	.	4d\	.	8g\	.	8g\	.	8g/	-ces
.	.	.	.	.	8b\J	.	8b\J	.	8b\	can-
!	!	!	!	!	!	!	!	!	!LO:LB:g=original	!
=26	=26	=26	=26	=26	=26	=26	=26	=26	=26	=26
4D\	.	.	4f#\	.	4a/	.	4a/	.	4a\	-tan-
8GG/L	.	.	4g\	.	4g/	.	4g/	.	4g/	-tes
8BB/	.	.	.	.	.	.	.	.	.	.
8D/	.	.	4r	.	4r	.	4r	.	4r	.
8G/J	.	.	.	.	.	.	.	.	.	.
!	!	!	!	!	!	!	!LO:LB:g=original	!	!	!
=27	=27	=27	=27	=27	=27	=27	=27	=27	=27	=27
4GG/	.	.	4B/	.	4dd\	.	4dd\	.	4dd\	Te
4r	.	.	4r	.	8cc\L	.	8cc\L	.	8cc\	ve-
.	.	.	.	.	8b\	.	8b\	.	8b\	-ne-
4r	.	.	4r	.	8a\	.	8a\	.	8a\	-ra-
.	.	.	.	.	8g\J	.	8g\J	.	8g/	-mur
=28	=28	=28	=28	=28	=28	=28	=28	=28	=28	=28
8r	.	.	8r	.	4ee\	.	4ee\	.	4ee\	his-
!	!	!	!LO:TX:a:t=problem: mixed beam	!	!	!	!	!	!	!
8c\L	.	.	8c/L	.	.	.	.	.	.	.
8B\	.	.	8B/	.	2dd\	.	2dd\	.	2dd\	-ce
8A\	.	.	8A/	.	.	.	.	.	.	.
8B\	.	.	8B/	.	.	.	.	.	.	.
8G\J	.	.	8g\J	.	.	.	.	.	.	.
=29	=29	=29	=29	=29	=29	=29	=29	=29	=29	=29
8A\L	.	.	8f#\L	.	4cc\	.	4cc\	.	4cc\	per-
8F#\J	.	.	8a\J	.	.	.	.	.	.	.
4G\	.	.	4d\	.	8b\L	.	8b\L	.	8b\	-ci-
.	.	.	.	.	8dd\	.	8dd\	.	8dd\	-pe
4BB/	.	.	4d\	.	8g\	.	8g\	.	8g/	sup-
.	.	.	.	.	8b\J	.	8b\J	.	8b\	-pli-
!LO:LB:g=original	!	!	!	!	!	!	!	!	!	!
=30	=30	=30	=30	=30	=30	=30	=30	=30	=30	=30
4D\	.	.	4f#\	.	4a/	.	4a/	.	4a\	-can-
8GG/L	.	.	4g\	.	4g/	.	4g/	.	4g/	-tes
8BB/	.	.	.	.	.	.	.	.	.	.
8D/	.	.	4r	.	4r	.	4r	.	4r	.
8G/J	.	.	.	.	.	.	.	.	.	.
=31	=31	=31	=31	=31	=31	=31	=31	=31	=31	=31
4GG/	.	.	4G/	.	8r	.	8r	.	8r	.
.	.	.	.	.	8g\L	.	8g/L	.	8g/	Au-
4r	.	.	4r	.	8b\	.	8b/	.	8b\	-di
!	!	!	!	!	!	!	!	!	!LO:LB:g=original	!
.	.	.	.	.	8a\	.	8a/	.	8a\	Pa-
4r	.	.	4r	.	8b\	.	8b/	.	8b\	-ter
.	.	.	.	.	8cc#X\J	.	8cc#X/J	.	8cc#X\	Fran-
=32	=32	=32	=32	=32	=32	=32	=32	=32	=32	=32
8r	.	.	8r	.	4dd\	.	4dd\	.	4dd\	-ci-
8D\L	.	.	8f#\L	.	.	.	.	.	.	.
8F#\	.	.	8a\	.	4d/	.	4d/	.	4d/	-sce
8E\	.	.	8g\	.	.	.	.	.	.	.
8F#\	.	.	8a\	.	[4dd\	.	4dd\	.	[4dd\	ex-
8G\J	.	.	8b\J	.	.	.	.	.	.	.
!	!	!	!	!	!LO:LB:g=original	!	!	!	!	!
=33	=33	=33	=33	=33	=33	=33	=33	=33	=33	=33
4A\	.	.	2.e\	.	4dd\]	.	4dd\	.	4dd\]	-au-
4AA/	.	.	.	.	8cc#X\L	.	8cc#X\L	.	8cc#X\	-di
.	.	.	.	.	8b\	.	8b\	.	8b\	ti-
4C#X/	.	.	.	.	8a\	.	8a\	.	8a\	-bi
.	.	.	.	.	8g\J	.	8g\J	.	8g/	can-
=34	=34	=34	=34	=34	=34	=34	=34	=34	=34	=34
.	.	.	.	.	8qqg/	.	8qqg/	.	8qqg/	.
8r	.	.	8r	.	4f#/	.	4f#/	.	4f#/	-ta-
8D\	.	.	8d\	.	.	.	.	.	.	.
4DD/	.	.	4D/	.	8r	.	8r	.	8r	.
!	!	!	!	!	!LO:TX:a:t=problem:mixed beam	!	!LO:TX:a:t=problem:mixed beam	!	!LO:TX:a:t=problem: mixed beam	!
.	.	.	.	.	(<8cc#X\L	.	(>8cc#X\L	.	8cc#X\L	.
4r	.	.	4r	.	8dd\	.	8dd\	.	8dd\	.
.	.	.	.	.	8f#/J)	.	8f#/J)	.	8f#/J	.
!	!	!	!LO:LB:g=original	!	!	!	!	!	!	!
=35	=35	=35	=35	=35	=35	=35	=35	=35	=35	=35
8r	.	.	8r	.	(8f#/L	.	(8f#/L	.	8f#/L	.
8E\	.	.	8e\	.	8g/J)	.	8g/J)	.	8g/J	.
4EE/	.	.	4E/	.	8r	.	8r	.	8r	.
!	!	!	!	!	!	!	!	!	!LO:LB:g=original	!
.	.	.	.	.	(8cc#X\L	.	(8cc#X\L	.	8cc#X\L	.
4r	.	.	4r	.	8dd\	.	8dd\	.	8dd\	.
.	.	.	.	.	8g#X\J)	.	8g#X\J)	.	8g#X\J	.
=36	=36	=36	=36	=36	=36	=36	=36	=36	=36	=36
!	!	!	!	!	!LO:SIC:s=8g#	!	!LO:SIC:s=8g#	!	!LO:SIC:s=8g#	!
8r	.	.	8r	.	(8g/L	.	(8g/L	.	8g\L	.
8F#\	.	.	8f#\	.	8a/J)	.	8a/J)	.	8a\J	.
4FF#/	.	.	4F#/	.	8r	.	8r	.	8r	.
!	!	!	!	!	!	!	!LO:LB:g=original	!	!	!
.	.	.	.	.	(8cc#X\L	.	(8cc#X\L	.	8cc#X\L	.
4r	.	.	4r	.	8dd\	.	8dd\	.	8dd\	.
.	.	.	.	.	8a#X\J)	.	8a#X\J)	.	8a#X\J	.
=37	=37	=37	=37	=37	=37	=37	=37	=37	=37	=37
!	!	!	!	!	!LO:SIC:s=8a#	!	!LO:SIC:s=8a#	!	!LO:SIC:s=8a#	!
8r	.	.	8r	.	8a/L	.	(8a/L	.	8a\L	.
8G\	.	.	8g\	.	8b/J	.	8b/J)	.	8b\J	.
4GG/	.	.	4G/	.	8r	.	8r	.	8r	.
!	!	!	!	!	!	!	!LO:TX:a:t=problem:mixed beam	!	!	!
.	.	.	.	.	8b/L	.	8g/L	.	8g\L	.
4r	.	.	4r	.	8g/	.	8ee\	.	8ee\	.
.	.	.	.	.	8f#/J	.	8dd\J	.	8dd\J	.
!LO:LB:g=original	!	!	!	!	!	!	!	!	!	!
=38	=38	=38	=38	=38	=38	=38	=38	=38	=38	=38
.	.	.	.	.	4qqf#/	.	4qqdd/	.	8qqdd/	.
8r	.	.	8r	.	2e/	.	2cc#X\	.	2cc#X\	-ntes
8A\L	.	.	8a\L	.	.	.	.	.	.	.
8E\	.	.	8e\	.	.	.	.	.	.	.
8A\	.	.	8a\	.	.	.	.	.	.	.
8C#X\	.	.	8c#X\	.	4r	.	4r	.	4r	.
8E\J	.	.	8e\J	.	.	.	.	.	.	.
=39	=39	=39	=39	=39	=39	=39	=39	=39	=39	=39
4AA/	.	.	4A/	.	8r	.	8r	.	8r	.
!	!	!	!	!	!LO:TX:a:t=poco for	!	!	!	!	!
.	.	.	.	.	8a\L	.	8a/L	.	8a\	au-
4r	.	.	4r	.	8cc#X\	.	8cc#X/	.	8cc#X\	-di
.	.	.	.	.	8ee\J	.	8ee/	.	8ee\	Ti-
!	!	!	!	!	!LO:LB:g=original	!	!	!	!	!
4r	.	.	4r	.	8cc#X\L	.	8cc#/	.	8cc#X\	-bi
.	.	.	.	.	8a\J	.	8a/J	.	8a\	can-
=40	=40	=40	=40	=40	=40	=40	=40	=40	=40	=40
8r	.	.	8r	.	4dd\	.	4ff#\	.	4ff#\	-tan-
!LO:TX:a:t=poco forte	!	!	!LO:TX:a:t=poco forte	!	!	!	!	!	!	!
8AA/L	.	.	8A\L	.	.	.	.	.	.	.
8C#X/	.	.	8c#X\	.	4cc#X\	.	4ee\	.	4ee\	-tes
8E/	.	.	8e\	.	.	.	.	.	.	.
8A/	.	.	8a\	.	4r	.	4r	.	4r	.
8E/J	.	.	8e\J	.	.	.	.	.	.	.
=41	=41	=41	=41	=41	=41	=41	=41	=41	=41	=41
4AA/	.	.	4A/	.	8r	.	8r	.	8r	.
.	.	.	.	.	8cc#X\L	.	8cc#X\L	.	8cc#X\	ê
4r	.	.	4r	.	8ee\	.	8ee\	.	8ee\	cor-
.	.	.	.	.	8cc#\	.	8cc#\	.	8cc#X\	-de
!	!	!	!	!	!	!	!	!	!LO:LB:g=original	!
4r	.	.	4r	.	8a\	.	8a\	.	8a\	sup-
.	.	.	.	.	8e\J	.	8g\J	.	8g/	-pli-
=42	=42	=42	=42	=42	=42	=42	=42	=42	=42	=42
8r	.	.	8r	.	4d/	.	4f#/	.	4f#/	-can-
!	!	!	!	!LO:DY:a	!	!	!	!	!	!
8AA/L	.	.	8A/L	p	.	.	.	.	.	.
!	!	!LO:DY:a	!	!	!	!	!	!	!	!
8C#X/	.	p	8c#X/	.	4c#X/	.	4e/	.	4e/	-tes
8E/	.	.	8e/	.	.	.	.	.	.	.
8A/	.	.	8a/	.	4r	.	4r	.	4r	.
!LO:TX:a:t=problem:pochyła kreska trudna do interpretacji	!	!	!	!	!	!	!	!	!	!
8E/J	.	.	8e/J	.	.	.	.	.	.	.
!	!	!	!LO:LB:g=original	!	!	!	!	!	!	!
=43	=43	=43	=43	=43	=43	=43	=43	=43	=43	=43
4AA/	.	.	4A/	.	8r	.	8r	.	8r	.
.	.	.	.	.	8a/L	.	8a\L	.	8a\	au-
4r	.	.	4r	.	8b/	.	8b\	.	8b\	-di
.	.	.	.	.	8a/	.	8a\	.	8a\	San-
4r	.	.	4r	.	8b/	.	8b\	.	8b\	-cte
.	.	.	.	.	8cc#X/J	.	8cc#X\J	.	8cc#X\	Fran-
=44	=44	=44	=44	=44	=44	=44	=44	=44	=44	=44
8r	.	.	8r	.	4dd\	.	4dd\	.	4dd\	-ci-
8D\L	.	.	8f#\L	.	.	.	.	.	.	.
8F#\	.	.	8a\	.	4d/	.	4d/	.	4d/	-sce
8E\	.	.	8g\	.	.	.	.	.	.	.
8F#\	.	.	8a\	.	[4dd\	.	[4dd\	.	[4dd\	et
8D\J	.	.	8f#\J	.	.	.	.	.	.	.
=45	=45	=45	=45	=45	=45	=45	=45	=45	=45	=45
4G\	.	.	8b\L	.	8dd\L]	.	8dd\L]	.	(8dd\L]	le-
.	.	.	8g\	.	8b\	.	8b\	.	8b\J)	.
4A\	.	.	8f#\	.	8a\	.	8a\	.	8a\	-va
.	.	.	8e\	.	8g\	.	8g\	.	8g/	sus-
4AA/	.	.	8d\	.	8f#\	.	8f#\	.	8f#/	-pi-
.	.	.	8c#X\J	.	8e\J	.	8e\J	.	8e/	-ri-
!LO:LB:g=original	!	!	!	!	!	!	!LO:LB:g=original	!	!	!
=46	=46	=46	=46	=46	=46	=46	=46	=46	=46	=46
!	!	!	!LO:TX:a:t=poco f.	!	!	!	!	!	!	!
8r	.	.	8d\L	.	4d/	.	4d/	.	4d/	-a,
8D\L	.	.	8f#\	.	.	.	.	.	.	.
8F#\	.	.	8a\	.	[2dd\	.	[2dd\	.	[2dd\	et
8E\	.	.	8g\	.	.	.	.	.	.	.
8F#\	.	.	8a\	.	.	.	.	.	.	.
8D\J	.	.	8f#\J	.	.	.	.	.	.	.
!	!	!	!	!	!	!	!	!	!LO:LB:g=original	!
=47	=47	=47	=47	=47	=47	=47	=47	=47	=47	=47
4G\	.	.	8b\L	.	8dd\L]	.	8dd\L]	.	8dd\L]	le-
.	.	.	8g\	.	8b\	.	8b\	.	8b\J	.
4A\	.	.	8f#\	.	8a\	.	8a\	.	8a\	-va
.	.	.	8e\	.	8g\	.	8g\	.	8g/	sus-
4AA/	.	.	8d\	.	8f#\	.	8f#\	.	8f#/	-pi-
.	.	.	8c#X\J	.	8e\J	.	8e\J	.	8e/	-ri-
!	!	!	!	!	!LO:LB:g=original	!	!	!	!	!
=48	=48	=48	=48	=48	=48	=48	=48	=48	=48	=48
8r	.	.	8r	.	2.d/	.	2.d/	.	2.d/	-a
8D/L	.	.	8d/L	.	.	.	.	.	.	.
8AA/	.	.	8A/	.	.	.	.	.	.	.
8D/	.	.	8d/	.	.	.	.	.	.	.
8FF#/	.	.	8F#/	.	.	.	.	.	.	.
8AA/J	.	.	8A/J	.	.	.	.	.	.	.
=49	=49	=49	=49	=49	=49	=49	=49	=49	=49	=49
!LO:TX:a:t=problem: mixed beam	!	!	!	!	!	!	!	!	!LO:TX:a:t=3	!
!	!	!	!	!	!	!	!	!	!LO:N:vis=0	!
8DD/L	.	.	8D/L	.	8r	.	8r	.	1.r	.
8D\	.	.	8d/	.	8dd\L	.	8dd\L	.	.	.
8AA\	.	.	8A/	.	8a\	.	8a\	.	.	.
8D\	.	.	8d/	.	8dd\	.	8dd\	.	.	.
8FF#\	.	.	8F#/	.	8f#\	.	8f#\	.	.	.
8AA\J	.	.	8A/J	.	8a\J	.	8a\J	.	.	.
=50	=50	=50	=50	=50	=50	=50	=50	=50	=50	=50
(>2.DDT/	.	.	(>2.DT/	.	(>2.d/	.	(>2.dT/	.	.	.
!	!	!	!LO:LB:g=original	!	!	!	!	!	!	!
=51	=51	=51	=51	=51	=51	=51	=51	=51	=51	=51
2DD/)	.	.	2D/)	.	2d/)	.	2d/)	.	2.r	.
4r	.	.	4r	.	4r	.	4r	.	.	.
=52	=52	=52	=52	=52	=52	=52	=52	=52	=52	=52
!	!	!LO:DY:t=for	!	!	!	!LO:DY:t=f	!	!	!	!
!	!	!LO:DY:a	!	!	!	!LO:DY:a	!	!	!	!
4E\	.	f	4g#X\	.	4b\	f	4dd\	.	4dd\	San-
4r	.	.	4r	.	8cc\L	.	8cc\L	.	8cc\	-cte
!	!	!	!	!	!	!LO:DY:t=p	!	!	!	!
!	!	!	!	!	!	!LO:DY:a	!	!	!	!
.	.	.	.	.	8b\	p	8b\	.	8b\	Pa-
4r	.	.	4r	.	8a\	.	8a\	.	8a\	-ter
.	.	.	.	.	8g#X\J	.	8g#X\J	.	8g#X/	Fran-
=53	=53	=53	=53	=53	=53	=53	=53	=53	=53	=53
8r	.	.	8r	.	4ffn\	.	4ffn\	.	4ffn\	-ci-
8d\L	.	.	8d\L	.	.	.	.	.	.	.
8c\	.	.	8cn\	.	2ee\	.	2ee\	.	2ee\	-sce
8B\	.	.	8B\	.	.	.	.	.	.	.
8c\	.	.	8c\	.	.	.	.	.	.	.
8A\J	.	.	8a\J	.	.	.	.	.	.	.
=54	=54	=54	=54	=54	=54	=54	=54	=54	=54	=54
8B\L	.	.	8g#X\L	.	4dd\	.	4dd\	.	4dd\	au-
8G#X\J	.	.	8b\J	.	.	.	.	.	.	.
4A\	.	.	4e\	.	8cc\L	.	8cc\L	.	8cc\	-di
.	.	.	.	.	8ee\	.	8ee\	.	8ee\	vo-
4C/	.	.	4e\	.	8a\	.	8a\	.	8a\	-ces
.	.	.	.	.	8cc\J	.	8cc\J	.	8cc\	can-
!LO:LB:g=original	!	!	!	!	!	!	!	!	!LO:LB:g=original	!
=55	=55	=55	=55	=55	=55	=55	=55	=55	=55	=55
4E\	.	.	4g#X\	.	4b/	.	4b\	.	4b\	-tan-
8AA/L	.	.	4a\	.	4a/	.	4a/	.	4a\	-tes
8C/	.	.	.	.	.	.	.	.	.	.
8E/	.	.	4r	.	4r	.	4r	.	4r	.
8A/J	.	.	.	.	.	.	.	.	.	.
=56	=56	=56	=56	=56	=56	=56	=56	=56	=56	=56
!	!	!LO:DY:t=f	!	!LO:DY:t=for	!	!	!	!	!	!
!	!	!LO:DY:a	!	!LO:DY:a	!	!LO:DY:t=f	!	!	!	!
4D\	.	f	4f#\	f	4a/	f	4cc\	.	4cc\	Te
!	!	!	!	!	!	!LO:DY:t=p	!	!	!	!
4r	.	.	4r	.	8b/L	p	8b/L	.	8b\	ve-
.	.	.	.	.	8a/	.	8a/	.	8a\	-ne-
4r	.	.	4r	.	8g/	.	8g/	.	8g/	-ra-
.	.	.	.	.	8f#/J	.	8f#/J	.	8f#/	-mur
=57	=57	=57	=57	=57	=57	=57	=57	=57	=57	=57
8r	.	.	8r	.	4ee\	.	4ee\	.	4ee\	his-
!	!	!	!LO:TX:a:t=problem: mixed beam	!LO:DY:a	!	!	!	!	!	!
8c\L	.	.	8c/L	p	.	.	.	.	.	.
8B\	.	.	8B/	.	2dd\	.	2dd\	.	2dd\	-ce
8A\	.	.	8A/	.	.	.	.	.	.	.
8B\	.	.	8B/	.	.	.	.	.	.	.
8G\J	.	.	8g\J	.	.	.	.	.	.	.
=58	=58	=58	=58	=58	=58	=58	=58	=58	=58	=58
8A\L	.	.	8f#\L	.	4cc\	.	4cc\	.	4cc\	per-
8F#\J	.	.	8a\J	.	.	.	.	.	.	.
4G\	.	.	4d\	.	8b\L	.	8b\L	.	8b\	-ci-
.	.	.	.	.	8dd\	.	8dd\J	.	8dd\	-pe
!	!	!	!	!	!	!	!LO:LB:g=original	!	!	!
4BB/	.	.	4d\	.	8g\	.	8g\L	.	8g/	sup-
.	.	.	.	.	8b\J	.	8b\J	.	8b\	-pli-
!	!	!	!	!	!LO:LB:g=original	!	!	!	!	!
=59	=59	=59	=59	=59	=59	=59	=59	=59	=59	=59
4D\	.	.	4f#\	.	4a/	.	4a/	.	4a\	-can-
8GG/L	.	.	4g\	.	4g/	.	4g/	.	4g\	-tes
8BB/	.	.	.	.	.	.	.	.	.	.
8D/	.	.	4r	.	4r	.	4r	.	4r	.
8G/J	.	.	.	.	.	.	.	.	.	.
!	!	!	!LO:LB:g=original	!	!	!	!	!	!	!
=60	=60	=60	=60	=60	=60	=60	=60	=60	=60	=60
4GG/	.	.	4G/	.	8r	.	8r	.	8r	.
.	.	.	.	.	8g/L	.	8g/L	.	8g/	au-
4r	.	.	4r	.	8a/	.	8a/	.	8a\	-di
.	.	.	.	.	8g/	.	8g/	.	8g/	San-
4r	.	.	4r	.	8a/	.	8a/	.	8a\	-cte
.	.	.	.	.	8b/J	.	8b/J	.	8b\	Fran-
!	!	!	!	!	!	!	!	!	!LO:LB:g=original	!
=61	=61	=61	=61	=61	=61	=61	=61	=61	=61	=61
8r	.	.	8r	.	4cc\	.	4cc\	.	4cc\	-ci-
8C\L	.	.	8e\L	.	.	.	.	.	.	.
8E\	.	.	8g\	.	4c/	.	4c/	.	4c/	-sce
8D\	.	.	8f#\	.	.	.	.	.	.	.
8E\	.	.	8g\	.	4r	.	4r	.	4r	.
8F#\J	.	.	8a\J	.	.	.	.	.	.	.
=62	=62	=62	=62	=62	=62	=62	=62	=62	=62	=62
4G\	.	.	4d\	.	8r	.	8r	.	8r	.
.	.	.	.	.	8g/L	.	8g/L	.	8g\	Te
4GG/	.	.	4r	.	8b/	.	8b/	.	8b\	ve-
.	.	.	.	.	8a/	.	8a/	.	8a\	-ne-
4r	.	.	4r	.	8b/	.	8b/	.	8b\	-ra-
.	.	.	.	.	8cc#X/J	.	8cc#X/J	.	8cc#X\	-mur
=63	=63	=63	=63	=63	=63	=63	=63	=63	=63	=63
8r	.	.	8r	.	4dd\	.	4dd\	.	4dd\	his-
!LO:LB:g=original	!	!	!	!	!	!	!	!	!	!
8D\L	.	.	8f#\L	.	.	.	.	.	.	.
8F#\	.	.	8a\	.	4d/	.	4d/	.	4d/	-ce
8E\	.	.	8g\	.	.	.	.	.	.	.
!	!	!	!	!	!	!LO:DY:t=for	!	!	!	!
8F#\	.	.	8a\	.	[4dd\	f	[4dd\	.	[4dd\	ô
8D\J	.	.	8f#\J	.	.	.	.	.	.	.
=64	=64	=64	=64	=64	=64	=64	=64	=64	=64	=64
*2\right	*	*	*	*	*	*	*	*	*	*
2.G#X\	.	.	2.b\	.	8dd\L]	.	8dd\L]	.	8dd\L]	Pa-
.	.	.	.	.	8ffn\	.	8ffn\	.	8ffn\J	.
.	.	.	.	.	8ee\	.	8ee\	.	8ee\	-ter
.	.	.	.	.	8dd\	.	8dd\	.	8dd\	ti-
.	.	.	.	.	8cc\	.	8cc\	.	8cc\	-bi
.	.	.	.	.	8b\J	.	8b\J	.	8b\	can-
=65	=65	=65	=65	=65	=65	=65	=65	=65	=65	=65
8r	.	.	8r	.	(8b\L	.	(8b\L	.	8b\L	-ta-
8A\	.	.	8a\	.	8cc\J)	.	8cc\J)	.	8cc\J	.
4AA/	.	.	4A/	.	8r	.	8r	.	8r	.
.	.	.	.	.	8ee\L	.	8ee\L	.	8ee\L	.
4r	.	.	4r	.	8cc\	.	8cc\	.	8cc\	.
.	.	.	.	.	8a\J	.	8a\J	.	8a\J	.
!	!	!	!	!	!	!	!	!	!LO:LB:g=original	!
=66	=66	=66	=66	=66	=66	=66	=66	=66	=66	=66
8r	.	.	8r	.	(8g/L	.	8g/L	.	8g/L	.
8D\	.	.	8d\	.	8f#/J)	.	8f#/J	.	8f#/J	.
4DD/	.	.	4D/	.	8r	.	8r	.	8r	.
.	.	.	.	.	(8cc\L	.	8cc\L	.	8cc\L	.
4r	.	.	4r	.	8b\	.	8b\	.	8b\	.
.	.	.	.	.	8a\J)	.	8a\J	.	8a\J	.
!	!	!	!	!	!LO:LB:g=original	!	!	!	!	!
=67	=67	=67	=67	=67	=67	=67	=67	=67	=67	=67
8r	.	.	8r	.	(>8a/L	.	8a/L	.	8a\L	.
8G\	.	.	8g\	.	8b/J)	.	8b/J	.	8b\J	.
=yy	=yy	=yy	=yy	=yy	=	=	=yy	=yy	=yy	=yy
4GG/	.	.	4G/	.	8ryy	.	8r	.	8r	.
!	!	!	!	!	!	!	!LO:LB:g=original	!	!	!
.	.	.	.	.	8dd\L	.	8dd\L	.	8dd\L	.
4r	.	.	4r	.	8b\	.	8b\	.	8b\	.
.	.	.	.	.	8g\J	.	8g\J	.	8g\J	.
=68	=68	=68	=68	=68	=68	=68	=68	=68	=68	=68
8r	.	.	8r	.	8fn/L	.	8fn/L	.	8fn/L	.
8C\	.	.	8c\	.	8e/J	.	8e/J	.	8e/J	.
4CC/	.	.	4C/	.	8r	.	8r	.	8r	.
.	.	.	.	.	(8cc\L	.	8cc\L	.	8cc\L	.
4r	.	.	4r	.	8b\	.	8b\	.	8b\	.
.	.	.	.	.	8a\J)	.	8a\J	.	8a\J	.
!	!	!	!LO:LB:g=original	!	!	!	!	!	!	!
=69	=69	=69	=69	=69	=69	=69	=69	=69	=69	=69
8r	.	.	8r	.	(>8g/L	.	(8g/L	.	8g/L	.
8D\	.	.	8d\	.	8f#/J)	.	8f#/J)	.	8f#/J	.
4DD/	.	.	4D/	.	8r	.	8r	.	8r	.
.	.	.	.	.	(8dd\L	.	8dd\L	.	8dd\L	.
4r	.	.	4r	.	8cc\	.	8cc\	.	8cc\	.
.	.	.	.	.	8b\J)	.	8b\J	.	8b\J	.
=70	=70	=70	=70	=70	=70	=70	=70	=70	=70	=70
8r	.	.	8r	.	(8a/L	.	(8a/L	.	8a\L	.
8E\	.	.	8e\	.	8g/J)	.	8g/J)	.	8g\J	.
4EE/	.	.	4E/	.	8r	.	8r	.	8r	.
.	.	.	.	.	8ee\L	.	8ee\L	.	8ee\L	.
4r	.	.	4r	.	8dd\	.	8dd\	.	8dd\	.
.	.	.	.	.	8cc#X\J	.	8cc#X\J	.	8cc#X\J	.
!LO:LB:g=original	!	!	!	!	!	!	!	!	!LO:LB:g=original	!
=71	=71	=71	=71	=71	=71	=71	=71	=71	=71	=71
!	!	!	!	!	!LO:SIC:s=q4cc#	!	!LO:SIC:s=q4cc#	!	!LO:SIC:s=q4cc#	!
.	.	.	.	.	4qqcc/	.	4qqcc/	.	4qqcc/	.
8r	.	.	8r	.	2dd\	.	2dd\	.	2dd\	-mus
8D/L	.	.	8d/L	.	.	.	.	.	.	.
8AA/	.	.	8A/	.	.	.	.	.	.	.
8D/	.	.	8d/	.	.	.	.	.	.	.
8FF#/	.	.	8F#/	.	4r	.	4r	.	4r	.
8AA/J	.	.	8A/J	.	.	.	.	.	.	.
=72	=72	=72	=72	=72	=72	=72	=72	=72	=72	=72
!	!	!LO:DY:a	!	!	!	!LO:DY:a	!	!	!	!
!	!	!LO:DY:t=for	!	!	!	!LO:DY:t=f	!	!	!	!
4DD/	.	f	4D/	.	4d/ 4a 4ff#	f	4d/ 4a 4ff#	.	4dd\	San-
4r	.	.	4r	.	8cc/L	.	8aa\L	.	8cc\	-cte
.	.	.	.	.	8a/	.	8ff#\	.	8a\	Ti-
4r	.	.	4r	.	8b/	.	8gg\	.	8b\	-bi
.	.	.	.	.	8g/J	.	8b\J	.	8g/	can-
=73	=73	=73	=73	=73	=73	=73	=73	=73	=73	=73
8r	.	.	8r	.	4f#/	.	4a/	.	(8f#X/L	-ta-
8D/L	.	.	8d/L	.	.	.	.	.	8a/J)	.
8AA/	.	.	8A/	.	4r	.	4r	.	4d/	-mus
8D/	.	.	8d/	.	.	.	.	.	.	.
8FF#/	.	.	8F#/	.	4r	.	4r	.	4r	.
8AA/J	.	.	8A/J	.	.	.	.	.	.	.
!	!	!	!	!	!LO:LB:g=original	!	!	!	!	!
=74	=74	=74	=74	=74	=74	=74	=74	=74	=74	=74
!	!	!	!	!	!LO:TX:a:t=problem:repetycja tt.73-74	!	!	!	!	!
4DD/	.	.	4D/	.	4d/ 4a 4ff#yy	f	4d/ 4a 4ff#	.	4dd\	et
!	!	!	!	!LO:DY:t=f.	!	!	!	!	!	!
!	!	!	!	!LO:DY:a	!	!	!	!	!	!
4r	.	.	4r	f	8cc/Lyy	.	8aa\L	.	8cc\	fes-
.	.	.	.	.	8a/yy	.	8ff#\	.	8a\	-ta
4r	.	.	4r	.	8b/yy	.	8gg\	.	8b\	ho-
.	.	.	.	.	8g/Jyy	.	8b\J	.	8g/	-no-
=75	=75	=75	=75	=75	=75	=75	=75	=75	=75	=75
!	!	!	!	!LO:DY:a	!	!	!	!	!	!
!	!	!	!	!LO:DY:t=p	!	!	!	!	!	!
8r	.	.	8r	p	4f#/yy	.	4a/	.	8f#/L	-ra-
8D/L	.	.	8d/L	.	.	.	.	.	8a/J	.
8AA/	.	.	8A/	.	4ryy	.	4r	.	4d/	-mus
!	!	!LO:DY:a	!	!	!	!	!	!	!	!
8D/	.	p	8d/	.	.	.	.	.	.	.
8FF#/	.	.	8F#/	.	4ryy	.	4r	.	4r	.
8AA/J	.	.	8A/J	.	.	.	.	.	.	.
!	!	!	!	!	!LO:LB:g=original	!	!	!	!	!
=76	=76	=76	=76	=76	=76	=76	=76	=76	=76	=76
4DD/	.	.	4D/	.	8r	.	8r	.	8r	.
!	!	!	!	!	!	!	!LO:LB:g=original	!	!	!
.	.	.	.	.	8dd\L	.	8dd\L	.	8dd\	San-
4r	.	.	4r	.	8ee\	.	8ee\	.	8ee\	-cte
.	.	.	.	.	8dd\	.	8dd\	.	8dd\	Pa-
!	!	!	!	!	!	!	!	!	!LO:LB:g=original	!
4r	.	.	4r	.	8ee\	.	8ee\	.	8ee\	-ter.
.	.	.	.	.	8ff#\J	.	8ff#\J	.	8ff#\	Fran-
!	!	!	!LO:LB:g=original	!	!	!	!	!	!	!
=77	=77	=77	=77	=77	=77	=77	=77	=77	=77	=77
8r	.	.	8r	.	4gg\	.	4gg\	.	4gg\	-ci-
8G\L	.	.	8b\L	.	.	.	.	.	.	.
8B\	.	.	8dd\	.	4g/	.	4g/	.	4g/	-sce
8A\	.	.	8cc\	.	.	.	.	.	.	.
8B\	.	.	8dd\	.	[4gg\	.	[4gg\	.	[4gg\	Te.
8G\J	.	.	8b\J	.	.	.	.	.	.	.
=78	=78	=78	=78	=78	=78	=78	=78	=78	=78	=78
4c\	.	.	8ee\L	.	8gg\L]	.	8gg\L]	.	(8gg\L]	hym-
!	!	!	!	!	!	!	!	!	!LO:TX:a:t=problem:niewyraźne łukowanie	!
.	.	.	8cc\	.	8ee\	.	8ee\	.	8ee\J)	.
!LO:LB:g=original	!	!	!	!	!	!	!	!	!	!
4d\	.	.	8b\	.	8dd\	.	8dd\	.	8dd\	-nis
.	.	.	8a\	.	8cc\	.	8cc\	.	8cc\	lau-
4D/	.	.	8g\	.	8b\	.	8b\	.	8b\	-da-
.	.	.	8f#\J	.	8a\J	.	8a\J	.	8a\	-mus
=79	=79	=79	=79	=79	=79	=79	=79	=79	=79	=79
8r	.	.	8r	.	4g/	.	4g/	.	4g/	Te
8G\	.	.	8g\	.	.	.	.	.	.	.
!	!	!	!	!	!	!	!	!	!LO:TX:a:t=problem:brak grupy	!
4GG/	.	.	4G/	.	8r	.	8r	.	2ryy	.
!	!	!	!	!	!LO:TX:a:t=problem:mixed beam	!	!LO:TX:a:t=problem:mixed beam	!	!	!
.	.	.	.	.	8ff#\L	.	(>8ff#\L	.	.	.
4r	.	.	4r	.	8gg\	.	8gg\	.	.	.
.	.	.	.	.	8b/J	.	8b/J)	.	.	.
=80	=80	=80	=80	=80	=80	=80	=80	=80	=80	=80
8r	.	.	8r	.	(8b\L	.	(8b\L	.	4ryy	.
8A\	.	.	8a\	.	8cc\J)	.	8cc\J)	.	.	.
4AA/	.	.	4A/	.	8r	.	8r	.	8r	.
.	.	.	.	.	8ff#\L	.	(8ff#\L	.	8ff#\L	lau-
4r	.	.	4r	.	8gg\	.	8gg\	.	8gg\	-da-
.	.	.	.	.	8cc#X\J	.	8cc#X\J)	.	8cc#X\J	.
=81	=81	=81	=81	=81	=81	=81	=81	=81	=81	=81
!	!	!	!	!	!LO:SIC:s=8cc#	!	!	!	!LO:SIC:s=8cc#	!
8r	.	.	8r	.	(8cc\L	.	(8cc#X\L	.	8cc\L	.
8B\	.	.	8b\	.	8dd\J)	.	8dd\J)	.	8dd\J	.
4BB/	.	.	4B/	.	8r	.	8r	.	8r	.
.	.	.	.	.	(8ff#\L	.	(8ff#\L	.	8ff#\L	.
4r	.	.	4r	.	8gg\	.	8gg\	.	8gg\	.
.	.	.	.	.	8dd#X\J)	.	8dd#X\J)	.	8dd#X\J	.
=82	=82	=82	=82	=82	=82	=82	=82	=82	=82	=82
!	!	!	!	!	!	!	!LO:SIC:s=8dd#	!	!LO:SIC:s=8dd#	!
8r	.	.	8r	.	8dd#X\L	.	8dd\L	.	8dd\L	.
8c\	.	.	8cc\	.	8ee\J	.	8ee\J	.	8ee\J	.
4C/	.	.	4c/	.	8r	.	8r	.	8r	.
.	.	.	.	.	8e/L	.	8cc\L	.	8cc\L	.
4r	.	.	4r	.	8d/	.	8b\	.	8b\	.
.	.	.	.	.	8c/J	.	8a\J	.	8a\J	.
=83	=83	=83	=83	=83	=83	=83	=83	=83	=83	=83
.	.	.	.	.	.	.	4qqg/	.	.	.
8r	.	.	8r	.	2A/	.	2f#/	.	2f#/	-mus
8D/L	.	.	8d/L	.	.	.	.	.	.	.
8AA/	.	.	8A/	.	.	.	.	.	.	.
8D/	.	.	8d/	.	.	.	.	.	.	.
8FF#/	.	.	8F#/	.	4r	.	4r	.	4r	.
8AA/J	.	.	8A/J	.	.	.	.	.	.	.
!	!	!	!	!	!LO:LB:g=original	!	!	!	!LO:LB:g=original	!
=84	=84	=84	=84	=84	=84	=84	=84	=84	=84	=84
4DD/	.	.	4D/	.	8r	.	8r	.	8r	.
!	!	!	!	!	!LO:TX:a:t=poco for	!	!	!	!	!
.	.	.	.	.	8dd\L	.	8dd\L	.	8dd\	San-
4r	.	.	4r	.	8ee\	.	8ee\	.	8ee\	-cte
.	.	.	.	.	8dd\	.	8dd\	.	8dd\	Pa-
4r	.	.	4r	.	8ee\	.	8ee\	.	8ee\	-ter
.	.	.	.	.	8ff#\J	.	8ff#\J	.	8ff#\	Fran-
!	!	!	!LO:LB:g=original	!	!	!	!	!	!	!
=85	=85	=85	=85	=85	=85	=85	=85	=85	=85	=85
8r	.	.	8r	.	4gg\	.	4gg\	.	4gg\	-cis-
!LO:TX:a:t=poco forte	!	!	!	!	!	!	!	!	!	!
8G\L	.	.	8b\L	.	.	.	.	.	.	.
8B\	.	.	8dd\	.	4g/	.	4g/	.	4g/	-ce
8A\	.	.	8cc\	.	.	.	.	.	.	.
8B\	.	.	8dd\	.	4gg\	.	[4gg\	.	[4gg\	Te
8G\J	.	.	8b\J	.	.	.	.	.	.	.
!	!	!	!	!	!	!	!LO:LB:g=original	!	!	!
=86	=86	=86	=86	=86	=86	=86	=86	=86	=86	=86
4c\	.	.	8ee\L	.	8gg\L	.	8gg\L]	.	8gg\L]	.
.	.	.	8cc\	.	8ee\	.	8ee\	.	(8ee\J	hym-
4d\	.	.	8b\	.	8dd\	.	8dd\	.	8dd\)	-nis
.	.	.	8a\	.	8cc\	.	8cc\	.	8cc\	lau-
4D/	.	.	8g\	.	8b\	.	8b\	.	8b\	-da-
.	.	.	8f#\J	.	8a\J	.	8a\J	.	8a\	-mus
!LO:LB:g=original	!	!	!	!	!	!	!	!	!	!
=87	=87	=87	=87	=87	=87	=87	=87	=87	=87	=87
8r	.	.	8r	.	4g/	.	4g/	.	4g/	te,
8G\L	.	.	8b\L	.	.	.	.	.	.	.
8B\	.	.	8dd\	.	2gg\	.	[2gg\	.	[2gg\	te
8A\	.	.	8cc\	.	.	.	.	.	.	.
8B\	.	.	8dd\	.	.	.	.	.	.	.
8G\J	.	.	8b\J	.	.	.	.	.	.	.
=88	=88	=88	=88	=88	=88	=88	=88	=88	=88	=88
4c\	.	.	8ee\L	.	8gg\L	.	8gg\L]	.	8gg\L]	.
.	.	.	8cc\	.	8ee\	.	8ee\	.	(8ee\J	hym-
4d\	.	.	8b\	.	8dd\	.	8dd\	.	8dd\)	-nis
.	.	.	8a\	.	8cc\	.	8cc\	.	8cc\	lau-
4D/	.	.	8g\	.	8b\	.	8b\	.	8b\	-da-
.	.	.	8f#\J	.	8a\J	.	8a\J	.	8a\	-mus
=89	=89	=89	=89	=89	=89	=89	=89	=89	=89	=89
!	!	!	!	!	!	!LO:DY:t=fortiſsimo	!	!	!	!
!	!	!	!	!	!LO:TX:a:t=problem:mixed beam	!	!LO:TX:a:t=problem:mixed beam	!	!	!
2GG/	.	.	4g\	.	8g/L	f	8g/L	.	2g/	Te.
.	.	.	.	.	8gg\	.	8gg\	.	.	.
.	.	.	2r	.	8aa\	.	8aa\	.	.	.
.	.	.	.	.	8gg\	.	8gg\	.	.	.
4r	.	.	.	.	8aa\	.	8aa\	.	4r	.
.	.	.	.	.	8bb\J	.	8bb\J	.	.	.
!	!	!	!	!	!	!	!	!	!LO:LB:g=original	!
=90	=90	=90	=90	=90	=90	=90	=90	=90	=90	=90
!	!	!	!	!	!	!	!	!	!LO:TX:a:t=10	!
!	!	!	!	!	!	!	!	!	!LO:N:vis=00	!
8r	.	.	8r	.	4ccc\	.	4ccc\	.	0.r	.
!	!	!	!	!LO:DY:t=fortiſsimo	!	!	!	!	!	!
8C\L	.	.	8e\L	ff	.	.	.	.	.	.
8E\	.	.	8g\	.	4cc\	.	4cc\	.	.	.
8D\	.	.	8fn\	.	.	.	.	.	.	.
8E\	.	.	8g\	.	4ccc\	.	[4ccc\	.	.	.
8Fn\J	.	.	8a\J	.	.	.	.	.	.	.
=91	=91	=91	=91	=91	=91	=91	=91	=91	=91	=91
4G\	.	.	4d\	.	8ccc\L	.	8ccc\L]	.	.	.
.	.	.	.	.	16bb\L	.	16bb\L	.	.	.
.	.	.	.	.	16ccc\JJ	.	16ccc\JJ	.	.	.
4GG/	.	.	4B/	.	16ddd\LL	.	16ddd\LL	.	.	.
.	.	.	.	.	16ccc\	.	16ccc\	.	.	.
.	.	.	.	.	16bb\	.	16bb\	.	.	.
.	.	.	.	.	16aa\JJ	.	16aa\JJ	.	.	.
4G\	.	.	4d\	.	8gg\L	.	8gg\L	.	.	.
.	.	.	.	.	8ffn\J	.	8ffn\J	.	.	.
!	!	!	!	!	!LO:LB:g=original	!	!	!	!	!
=92	=92	=92	=92	=92	=92	=92	=92	=92	=92	=92
4C\	.	.	4c/	.	8ee\L	.	8ee\L	.	.	.
.	.	.	.	.	16cc\L	.	16cc\L	.	.	.
.	.	.	.	.	16dd\JJ	.	16dd\JJ	.	.	.
4CC/	.	.	4c/	.	16ee\LL	.	16ee\LL	.	.	.
.	.	.	.	.	16dd\	.	16dd\	.	.	.
.	.	.	.	.	16cc\	.	16cc\	.	.	.
.	.	.	.	.	16b\JJ	.	16b\JJ	.	.	.
4C\	.	.	4e\	.	8a/L	.	8a/L	.	.	.
.	.	.	.	.	8g/J	.	8g/J	.	.	.
=93	=93	=93	=93	=93	=93	=93	=93	=93	=93	=93
8r	.	.	8r	.	4f#m/	.	4f#/	.	.	.
!LO:TX:a:t=problem: mixed beam	!	!	!	!	!	!	!	!	!	!
8D\L	.	.	8d\L	.	.	.	.	.	.	.
!	!	!	!	!	!	!	!LO:TX:a:t=t	!	!	!
8F#\	.	.	8f#\	.	4aT/	.	4ff#\	.	.	.
8A\	.	.	8a\J	.	.	.	.	.	.	.
!	!	!	!LO:LB:g=original	!	!	!	!	!	!	!
!	!	!	!LO:TX:a:t=problem: mixed meam	!	!	!	!	!	!	!
8c\	.	.	8cc\L	.	4aM/	.	4ff#t\	.	.	.
8D/J	.	.	8d/J	.	.	.	.	.	.	.
=94	=94	=94	=94	=94	=94	=94	=94	=94	=94	=94
!	!	!	!	!	!LO:TX:a:t=tt	!	!	!	!LO:N:vis=00	!
8r	.	.	8r	.	4a/	.	4ff#m\	.	0.r	.
!LO:TX:a:t=problem: mixed beam	!	!	!LO:TX:a:t=problem: mixed meam	!	!	!	!	!	!	!
8D\L	.	.	8d\L	.	.	.	.	.	.	.
8F#\	.	.	8f#\	.	4aM/	.	4ff#m\	.	.	.
8A\	.	.	8a\	.	.	.	.	.	.	.
8c\	.	.	8cc\	.	4aM/	.	4ff#m\	.	.	.
8D/J	.	.	8d/J	.	.	.	.	.	.	.
=95	=95	=95	=95	=95	=95	=95	=95	=95	=95	=95
4BB/	.	.	4d\	.	16gg\LL	.	16gg\LL	.	.	.
.	.	.	.	.	16bb\	.	16bb\	.	.	.
.	.	.	.	.	16aa\	.	16aa\	.	.	.
.	.	.	.	.	16gg\JJ	.	16gg\JJ	.	.	.
!	!	!	!	!	!	!	!LO:TX:a:t=Gis	!	!	!
!	!	!	!	!	!	!	!LO:TX:a:t=problem:Gis zanotowane pod klamrą łukową na 2 takty	!	!	!
4r	.	.	4r	.	16ff#\LL	.	16ff#\LL	.	.	.
.	.	.	.	.	16ee\	.	16ee\	.	.	.
.	.	.	.	.	16dd\	.	16dd\	.	.	.
.	.	.	.	.	16cc\JJ	.	16cc\JJ	.	.	.
4r	.	.	4r	.	16b/LL	.	16b/LL	.	.	.
.	.	.	.	.	16a/	.	16a/	.	.	.
.	.	.	.	.	16g/	.	16g/	.	.	.
.	.	.	.	.	16f#/JJ	.	16f#/JJ	.	.	.
!LO:LB:g=original	!	!	!	!	!	!	!LO:LB:g=original	!	!	!
=96	=96	=96	=96	=96	=96	=96	=96	=96	=96	=96
!	!	!	!	!	!LO:TX:a:t=problem:mixed beam	!	!LO:TX:a:t=problem:mixed beam	!	!	!
4C/	.	.	4c\	.	8e/L	.	8e/L	.	.	.
!	!	!	!	!	!	!	!LO:TX:a:t=G	!	!	!
.	.	.	.	.	8cc\	.	8cc\	.	.	.
4D/	.	.	4d\	.	8b\	.	8b\	.	.	.
.	.	.	.	.	8dd\	.	8dd\	.	.	.
4DD/	.	.	4D/	.	8d/	.	8d/	.	.	.
.	.	.	.	.	8f#/J	.	8f#/J	.	.	.
=97	=97	=97	=97	=97	=97	=97	=97	=97	=97	=97
!	!	!	!	!	!	!	!LO:TX:a:t=problem:repetycja tt.97-98	!	!	!
4GG/	.	.	4G/	.	16gg\LL	.	16gg\LLyy	.	.	.
.	.	.	.	.	16bb\	.	16bb\yy	.	.	.
.	.	.	.	.	16aa\	.	16aa\yy	.	.	.
.	.	.	.	.	16gg\JJ	.	16gg\JJyy	.	.	.
!	!	!	!	!	!	!	!LO:TX:a:t=Gis	!	!	!
!	!	!	!	!	!	!	!LO:TX:a:t=problem:Gis pod klamrą łukową na dwa takty	!	!	!
4r	.	.	4r	.	16ff#\LL	.	16ff#\LLyy	.	.	.
.	.	.	.	.	16ee\	.	16ee\yy	.	.	.
.	.	.	.	.	16dd\	.	16dd\yy	.	.	.
.	.	.	.	.	16cc\JJ	.	16cc\JJyy	.	.	.
!	!	!	!	!	!LO:LB:g=original	!	!	!	!	!
4r	.	.	4r	.	16b/LL	.	16b/LLyy	.	.	.
.	.	.	.	.	16a/	.	16a/yy	.	.	.
.	.	.	.	.	16g/	.	16g/yy	.	.	.
.	.	.	.	.	16f#/JJ	.	16f#/JJyy	.	.	.
!	!	!	!	!	!	!	!LO:LB:g=original	!	!	!
=98	=98	=98	=98	=98	=98	=98	=98	=98	=98	=98
!	!	!	!	!	!LO:TX:a:t=problem:mixed beam	!	!LO:TX:a:t=problem:mixed beam	!	!LO:N:vis=0	!
4C\	.	.	4c\	.	8e/L	.	8e/Lyy	.	1.r	.
!	!	!	!	!	!	!	!LO:TX:a:t=G	!	!	!
.	.	.	.	.	8cc\	.	8cc\yy	.	.	.
4D\	.	.	4d\	.	8b\	.	8b\yy	.	.	.
.	.	.	.	.	8dd\	.	8dd\yy	.	.	.
4DD/	.	.	4D/	.	8d/	.	8d/yy	.	.	.
.	.	.	.	.	8f#/J	.	8f#/Jyy	.	.	.
=99	=99	=99	=99	=99	=99	=99	=99	=99	=99	=99
2GG;</	.	.	2G;/	.	4g/	.	4g/	.	.	.
.	.	.	.	.	4G;/	.	4G;/	.	.	.
!LO:TX:a:t=Volti Subito	!	!	!LO:TX:b:t=Volti Subito	!	!LO:TX:a:t=Volti Subito	!	!	!	!	!
4r	.	.	4r	.	4r	.	4r	.	.	.
!LO:PB:g=original	!	!	!LO:PB:g=original	!	!LO:PB:g=original	!	!	!	!	!
=100	=100	=100	=100	=100	=100	=100	=100	=100	=100	=100
!	!LO:DY:a	!	!	!	!	!	!	!	!	!
!	!LO:DY:t=p	!	!	!LO:DY:t=p	!LO:TX:a:t=problem:p=piano	!LO:DY:a	!	!	!	!
4G\	p	.	4B/	p	4dd\	p	4dd\	.	4dd\	San-
4r	.	.	4r	.	8cc\L	.	8cc\L	.	8cc\	-cte
.	.	.	.	.	8b\	.	8b\	.	8b\	Pa-
4r	.	.	4r	.	8a\	.	8a\	.	8a\	-ter
.	.	.	.	.	8g\J	.	8g\J	.	8g\	Fran-
=101	=101	=101	=101	=101	=101	=101	=101	=101	=101	=101
8r	.	.	8r	.	4ee\	.	4ee\	.	4ee\	-ci-
!	!	!	!LO:TX:a:t=problem: mixed beam	!	!	!	!	!	!	!
8c\L	.	.	8c/L	.	.	.	.	.	.	.
8B\	.	.	8B/	.	4dd\	.	4dd\	.	4dd\	-sce
8A\	.	.	8A/	.	.	.	.	.	.	.
8B\	.	.	8B/	.	4r	.	4r	.	4r	.
8G\J	.	.	8g\J	.	.	.	.	.	.	.
=102	=102	=102	=102	=102	=102	=102	=102	=102	=102	=102
8A\L	6	.	8a\L	.	4ffn\	.	4ffn\	.	4ffn\	his-
8Fn\	n	.	8fn\	.	.	.	.	.	.	.
8G\	6	.	8g\	.	4ee\	.	4ee\	.	4ee\	-ce
8F\	.	.	8fn\	.	.	.	.	.	.	.
8G\	.	.	8g\	.	8r	.	8r	.	8r	.
8E\J	.	.	8e\J	.	8cc\	.	8cc\	.	8cc\	lau-
=103	=103	=103	=103	=103	=103	=103	=103	=103	=103	=103
8Fn\L	.	.	8fn\L	.	8dd\L	.	8dd\L	.	8dd\L	-da-
8D\	.	.	8d\	.	8b\J	.	8b\J	.	(8b\J	.
8E\	6	.	8e\	.	4cc\	.	4cc\	.	4cc\)	-mus
8D\	.	.	8d\	.	.	.	.	.	.	.
8E\	.	.	8e\	.	8r	.	8r	.	8r	.
8C\J	6	.	8c\J	.	8a/	.	8a/	.	8a\	lau-
=104	=104	=104	=104	=104	=104	=104	=104	=104	=104	=104
!	!	!	!	!	!	!	!	!	!LO:TX:a:t=Tr	!
8BB/L	6	.	8d/L	.	2g/	.	2g/	.	2g/	-da-
8AA/	.	.	8c/	.	.	.	.	.	.	.
8BB/	5	.	8d/	.	.	.	.	.	.	.
8GG/	n	.	8B/	.	.	.	.	.	.	.
8AA/	.	.	8c/	.	4fn/	.	4fn/	.	4fn/	.
8BB/J	.	.	8d/J	.	.	.	.	.	.	.
=105	=105	=105	=105	=105	=105	=105	=105	=105	=105	=105
!	!	!	!	!	!LO:SIC:s=q4f-	!	!LO:SIC:s=q4f-	!	!LO:TX:a:t=problem:takt słabo czytelny, interpretacja niepewna	!
.	.	.	.	.	4qqf#/	.	.	.	.	.
8r	.	.	8r	.	2e/	.	2e/	.	4fn/	.
8C/L	.	.	8c/L	.	.	.	.	.	.	.
8GG/	.	.	8G/	.	.	.	.	.	2e/	-mus
8C/	.	.	8c/	.	.	.	.	.	.	.
8EE/	.	.	8E/	.	4r	.	4r	.	.	.
8GG/J	.	.	8G/J	.	.	.	.	.	.	.
!	!	!	!	!	!	!	!	!	!LO:PB:g=original	!
=106	=106	=106	=106	=106	=106	=106	=106	=106	=106	=106
!	!	!	!	!	!	!LO:DY:t=forte	!	!	!	!
!	!	!LO:DY:a	!	!LO:DY:a	!	!LO:DY:a	!	!	!	!
4CC/	.	f	4C/	f	4c/ 4g 4b-X 4ee	f	4c/ 4g 4b-X 4ee	.	4b-X\	Ti-
4r	.	.	4r	.	4r	.	4r	.	8a\	-bi
.	.	.	.	.	.	.	.	.	8b-X\	vo-
4r	.	.	4r	.	4r	.	4r	.	8cc\	-ta
.	.	.	.	.	.	.	.	.	8b-X\	di-
!	!	!	!LO:LB:g=original	!	!	!	!	!	!	!
=107	=107	=107	=107	=107	=107	=107	=107	=107	=107	=107
8r	.	.	8r	.	4a/	.	4ffn\	.	(8a/L	-ca-
!	!	!	!	!LO:DY:a	!	!	!	!	!	!
!	!	!	!	!LO:DY:t=p	!	!	!	!	!	!
8Fn\L	.	.	8fn\L	p	.	.	.	.	8g/J)	.
8C\	.	.	8c\	.	4r	.	4r	.	4fn/	-mus
8AA\	.	.	8A\	.	.	.	.	.	.	.
8FFn\	.	.	8Fn\	.	4r	.	4r	.	4r	.
8Fn\J	.	.	8fn\J	.	.	.	.	.	.	.
!LO:LB:g=original	!	!	!	!	!LO:LB:g=original	!	!	!	!	!
=108	=108	=108	=108	=108	=108	=108	=108	=108	=108	=108
!	!	!LO:DY:t=for	!	!LO:DY:t=for	!	!	!	!	!	!
!	!	!LO:DY:a	!	!LO:DY:a	!	!	!	!	!	!
4D\	#	f	4d\	f	4d/ 4a 4ff#X	.	4d/ 4a 4ff#X	.	4cc\	Te
4r	.	.	4r	.	4r	.	4r	.	8b\	cor-
.	.	.	.	.	.	.	.	.	8cc\	-de
4r	.	.	4r	.	4r	.	4r	.	8dd\	sa-
.	.	.	.	.	.	.	.	.	8cc\	-lu-
=109	=109	=109	=109	=109	=109	=109	=109	=109	=109	=109
!	!	!	!	!	!	!LO:DY:t=pia	!	!	!	!
8r	.	.	8r	.	4b/	p	4gg\	.	8cc\L	-ta-
8G\	.	.	8g\	.	.	.	.	.	8b\J	.
!	!	!LO:DY:t=p	!	!LO:DY:t=p	!	!	!	!	!	!
!	!	!LO:DY:a	!	!LO:DY:a	!	!	!	!	!	!
4GG/	.	p	4G/	p	4r	.	8r	.	8r	.
.	.	.	.	.	.	.	(8g\L	.	8g\L	.
4r	.	.	4r	.	8r	.	8b\	.	8b\	.
.	.	.	.	.	8b/	.	8dd\J)	.	8dd\J	.
!	!	!	!	!	!	!	!LO:LB:g=original	!	!	!
=110	=110	=110	=110	=110	=110	=110	=110	=110	=110	=110
8r	.	.	8r	.	(8b\L	.	(8dd\L	.	8dd\L	.
8G\	6: 4	.	8g\	.	8cc\J)	.	8ee\J)	.	8ee\J	.
4GG/	5 3	.	4G/	.	4r	.	8r	.	8r	.
.	.	.	.	.	.	.	(8g\L	.	8g\L	.
4r	.	.	4r	.	8r	.	8cc\	.	8cc\	.
.	.	.	.	.	8cc\	.	8ee\J)	.	8ee\J	.
=111	=111	=111	=111	=111	=111	=111	=111	=111	=111	=111
8r	.	.	8r	.	(8cc\L	.	(8ee\L	.	8ee\L	.
8G\	.	.	8g\	.	8dd\J)	.	8ffn\J)	.	8ffn\J	.
!	!	!	!	!	!	!	!	!	!LO:LB:g=original	!
4GG/	.	.	4G/	.	4r	.	8r	.	8r	.
.	.	.	.	.	.	.	8g\L	.	8g\L	.
4r	.	.	4r	.	8r	.	8dd\	.	8dd\	.
.	.	.	.	.	8dd\	.	8ffn\J	.	8ffn\J	.
=112	=112	=112	=112	=112	=112	=112	=112	=112	=112	=112
!LO:TX:a:t=problem: mixed beam	!	!	!LO:TX:a:t=problem: mixed beam	!	!	!	!	!	!	!
8C/L	.	.	8c/L	.	4cc\	.	4eeM\	.	4eeT\	.
8c\	.	.	8cc\	.	.	.	.	.	.	.
8B\	.	.	8b\	.	4g/	.	4ddM\	.	4ddT\	.
8BB/	.	.	8B/	.	.	.	.	.	.	.
8AA/	.	.	8A/	.	4f#X/	.	4ccM\	.	4ccT\	.
8A\J	.	.	8a\J	.	.	.	.	.	.	.
=113	=113	=113	=113	=113	=113	=113	=113	=113	=113	=113
!	!	!	!LO:TX:a:t=poco f	!	!LO:TX:a:t=problem: mixed beam	!	!	!	!	!
.	.	.	.	.	.	.	.	.	4qqcc/	.
*	*	*	*2\right	*	*	*	*	*	*	*
2G\	.	.	2g\	.	8g/L	.	8b\L	.	2b\	-mus
.	.	.	.	.	8gg\	.	8gg\	.	.	.
.	.	.	.	.	8aa\	.	8aa\	.	.	.
.	.	.	.	.	8gg\	.	8gg\	.	.	.
4Fn\	.	.	4fn\	.	8aa\	.	8aa\	.	4r	.
.	.	.	.	.	8bb\J	.	8bb\J	.	.	.
!	!	!	!LO:LB:g=original	!	!	!	!	!	!	!
=114	=114	=114	=114	=114	=114	=114	=114	=114	=114	=114
!	!	!	!	!LO:DY:a	!LO:TX:a:t=problem:mixed beam	!	!LO:TX:a:t=problem:mixed beam	!	!	!
!	!	!	!	!LO:DY:t=p	!	!	!	!	!	!
2E\	.	.	2e\	p	8ccc\L	.	8ccc\L	.	8r	.
.	.	.	.	.	8g/	.	8g/	.	8g/	Te
.	.	.	.	.	8a/	.	8a/	.	8a/	cor-
.	.	.	.	.	8g/	.	8g/	.	8g/	-de
4D\	.	.	4d\	.	8a/	.	8a/	.	8a\	sa-
.	.	.	.	.	8b/J	.	8b/J	.	8b\	-lu-
=115	=115	=115	=115	=115	=115	=115	=115	=115	=115	=115
8r	.	.	8r	.	4cc\	.	4cc\	.	4cc\	-ta-
8C\L	.	.	8e\L	.	.	.	.	.	.	.
8D\	.	.	8fn\	.	2cc\	.	2cc\	.	2ccT\	.
8C\	.	.	8e\	.	.	.	.	.	.	.
8D\	.	.	8f\	.	.	.	.	.	.	.
8E\J	.	.	8g\J	.	.	.	.	.	.	.
!LO:LB:g=original	!	!	!	!	!LO:LB:g=original	!	!	!	!	!
=116	=116	=116	=116	=116	=116	=116	=116	=116	=116	=116
8Fn\L	.	.	8a\L	.	4cc\	.	4cc\	.	4cc\	.
8D\	.	.	8fn\	.	.	.	.	.	.	.
8E\	.	.	8g\	.	2cc\	.	2cc\	.	2cc\	.
8D\	.	.	8f\	.	.	.	.	.	.	.
8E\	.	.	8g\	.	.	.	.	.	.	.
8Fn\J	.	.	8a\J	.	.	.	.	.	.	.
=117	=117	=117	=117	=117	=117	=117	=117	=117	=117	=117
2G;\	.	.	2.e;\	.	2.cc;\	.	2.cc;\	.	2cc;\	.
4GG/	.	.	.	.	.	.	.	.	4ddT\	.
=118	=118	=118	=118	=118	=118	=118	=118	=118	=118	=118
!	!	!	!LO:TX:a:t=1	!	!LO:TX:a:t=1	!	!LO:TX:a:t=1	!	!	!
8C/L	.	.	2.r	.	2.r	.	2.r	.	2cc\	-mus.
8E/	.	.	.	.	.	.	.	.	.	.
!	!	!LO:DY:a	!	!	!	!	!	!	!	!
!	!	!LO:DY:t=for	!	!	!	!	!	!	!	!
8D/	.	f	.	.	.	.	.	.	.	.
8C/	.	.	.	.	.	.	.	.	.	.
8BB/	.	.	.	.	.	.	.	.	4r	.
8AA/J	.	.	.	.	.	.	.	.	.	.
!	!	!	!	!	!	!	!	!	!LO:LB:g=original	!
=119	=119	=119	=119	=119	=119	=119	=119	=119	=119	=119
!	!	!	!	!LO:DY:a	!	!	!	!	!LO:TX:a:t=12	!
!	!	!	!	!	!	!LO:DY:t=for	!	!	!LO:N:vis=00	!
4GG/	.	.	4B/	f	4dd\	f	4dd\	.	0.r	.
4r	.	.	4r	.	8cc\L	.	8cc\L	.	.	.
.	.	.	.	.	8b\	.	8b\	.	.	.
4r	.	.	4r	.	8a\	.	8a\	.	.	.
.	.	.	.	.	8g\J	.	8g\J	.	.	.
=120	=120	=120	=120	=120	=120	=120	=120	=120	=120	=120
8r	.	.	8r	.	4ee\	.	4ee\	.	.	.
!	!	!	!LO:TX:a:t=problem: mixed beam	!	!	!	!	!	!	!
8c\L	.	.	8c/L	.	.	.	.	.	.	.
8B\	.	.	8B/	.	2dd\	.	2dd\	.	.	.
8A\	.	.	8A/	.	.	.	.	.	.	.
8B\	.	.	8B/	.	.	.	.	.	.	.
8G\J	.	.	8g\J	.	.	.	.	.	.	.
=121	=121	=121	=121	=121	=121	=121	=121	=121	=121	=121
8A\L	.	.	8f#\L	.	4cc\	.	4cc\	.	.	.
8F#\J	.	.	8a\J	.	.	.	.	.	.	.
4G\	.	.	4d\	.	8b\L	.	8b\L	.	.	.
.	.	.	.	.	8dd\	.	8dd\	.	.	.
4BB/	.	.	4d\	.	8g\	.	8g\	.	.	.
.	.	.	.	.	8b\J	.	8b\J	.	.	.
!	!	!	!	!	!	!	!LO:LB:g=original	!	!	!
=122	=122	=122	=122	=122	=122	=122	=122	=122	=122	=122
4D/	.	.	4f#\	.	4a/	.	4a/	.	.	.
4GG/	.	.	4g\	.	8g/	.	8g/	.	.	.
!	!	!	!	!	!LO:TX:a:t=problem: mixed beam	!	!	!	!	!
.	.	.	.	.	(8ff#\L	.	(8ff#\L	.	.	.
4r	.	.	4r	.	8gg\	.	8gg\	.	.	.
.	.	.	.	.	8b/J)	.	8b\J)	.	.	.
!	!	!	!LO:LB:g=original	!	!	!	!	!	!	!
=123	=123	=123	=123	=123	=123	=123	=123	=123	=123	=123
!	!	!	!	!	!	!	!	!	!LO:N:vis=00	!
8r	.	.	8r	.	(8b\L	.	(8b\L	.	0.r	.
!	!	!	!	!LO:DY:t=p	!	!	!	!	!	!
!	!	!	!	!LO:DY:a	!	!	!	!	!	!
8A\	.	.	8a\	p	8cc\J)	.	8cc\J)	.	.	.
4AA/	.	.	4A/	.	8r	.	8r	.	.	.
.	.	.	.	.	(8ff#\L	.	(8ff#\L	.	.	.
4r	.	.	4r	.	8gg\	.	8gg\	.	.	.
.	.	.	.	.	8cc#X\J)	.	8cc#X\J)	.	.	.
=124	=124	=124	=124	=124	=124	=124	=124	=124	=124	=124
!	!	!	!	!	!LO:SIC:s=8cc#	!	!LO:SIC:s=8cc#	!	!	!
8r	.	.	8r	.	(8cc\L	.	(8cc\L	.	.	.
!LO:LB:g=original	!	!	!	!	!	!	!	!	!	!
8B\	.	.	8b\	.	8dd\J)	.	8dd\J)	.	.	.
4BB/	.	.	4B/	.	8r	.	8r	.	.	.
.	.	.	.	.	(8ff#\L	.	(8ff#\L	.	.	.
4r	.	.	4r	.	8gg\	.	8gg\	.	.	.
.	.	.	.	.	8dd#X\J)	.	8dd#X\J)	.	.	.
!	!	!	!	!	!LO:LB:g=original	!	!	!	!	!
=125	=125	=125	=125	=125	=125	=125	=125	=125	=125	=125
!	!	!	!	!	!	!	!LO:SIC:s=8dd#	!	!	!
8r	.	.	8r	.	(8dd#X\L	.	8dd\L	.	.	.
8c\	.	.	8cc\	.	8ee\J)	.	8ee\J	.	.	.
4C/	.	.	4c/	.	8r	.	8r	.	.	.
.	.	.	.	.	8ee\L	.	8ccc\L	.	.	.
4r	.	.	4r	.	8ddn\	.	8bb\	.	.	.
.	.	.	.	.	8cc\J	.	8aa\J	.	.	.
=126	=126	=126	=126	=126	=126	=126	=126	=126	=126	=126
!	!	!	!	!	!	!LO:DY:t=forte	!	!	!	!
!	!	!	!	!	!	!LO:DY:a	!	!	!	!
8r	.	.	8r	.	4aT/	f	4ff#\	.	.	.
!LO:TX:a:t=problem: mixed beam	!	!	!LO:TX:a:t=problem: mixed beam	!LO:DY:a	!	!	!	!	!	!
8D\L	.	.	8d\L	f	.	.	.	.	.	.
8F#\	.	.	8f#\	.	4aT/	.	4ff#\	.	.	.
8A\	.	.	8a\	.	.	.	.	.	.	.
!	!	!	!	!	!LO:TX:a:t=problem:tr=tr.	!	!	!	!	!
8c\	.	.	8cc\	.	4aT/	.	4ff#\	.	.	.
8D/J	.	.	8d/J	.	.	.	.	.	.	.
=127	=127	=127	=127	=127	=127	=127	=127	=127	=127	=127
!	!	!	!	!	!LO:TX:a:t=t.	!	!	!	!LO:N:vis=00	!
8r	.	.	8r	.	4aT/	.	4ff#\	.	0.r	.
!LO:TX:a:t=problem: mixed beam	!	!	!LO:TX:a:t=problem: mixed beam	!	!	!	!	!	!	!
8D\L	.	.	8d\L	.	.	.	.	.	.	.
8F#\	.	.	8f#\	.	4aT/	.	4ff#\	.	.	.
8A\	.	.	8a\	.	.	.	.	.	.	.
8c\	.	.	8cc\	.	4aT/	.	4ff#\	.	.	.
8D/J	.	.	8d/J	.	.	.	.	.	.	.
=128	=128	=128	=128	=128	=128	=128	=128	=128	=128	=128
4BB/	.	.	4d\	.	16gg\LL	.	16gg\LL	.	.	.
.	.	.	.	.	16bb\	.	16bb\	.	.	.
.	.	.	.	.	16aa\	.	16aa\	.	.	.
.	.	.	.	.	16gg\JJ	.	16gg\JJ	.	.	.
4r	.	.	4r	.	16ff#\LL	.	16ff#\LL	.	.	.
.	.	.	.	.	16ee\	.	16ee\	.	.	.
.	.	.	.	.	16dd\	.	16dd\	.	.	.
.	.	.	.	.	16cc\JJ	.	16cc\JJ	.	.	.
4r	.	.	4r	.	16b/LL	.	16b/LL	.	.	.
.	.	.	.	.	16a/	.	16a/	.	.	.
.	.	.	.	.	16g/	.	16g/	.	.	.
.	.	.	.	.	16f#/JJ	.	16f#/JJ	.	.	.
=129	=129	=129	=129	=129	=129	=129	=129	=129	=129	=129
!	!	!	!	!	!LO:TX:a:t=problem:mixed beam	!	!LO:TX:a:t=problem:mixed beam	!	!	!
4C\	.	.	4c\	.	8e/L	.	8e/L	.	.	.
.	.	.	.	.	8cc\	.	8cc\	.	.	.
4D\	.	.	4d\	.	8b\	.	8b\	.	.	.
.	.	.	.	.	8dd\	.	8dd\	.	.	.
4DD/	.	.	4D/	.	8d/	.	8d/	.	.	.
.	.	.	.	.	8f#/J	.	8f#/J	.	.	.
=130	=130	=130	=130	=130	=130	=130	=130	=130	=130	=130
!	!	!	!	!	!	!	!	!	!LO:TX:b:t=X. Christian Piar prosi o Ave Maria	!
!	!	!	!	!	!	!	!	!	!LO:TX:a:t=Da Capo al Segno [segno]	!
2GG/	.	.	2G/	.	4g/	.	4g/	.	.	.
.	.	.	.	.	4G/	.	4G/	.	.	.
!LO:TX:a:t=Da Capo al Segno [segno]	!	!	!LO:TX:b:t=Da Capo al Segno [segno]	!	!LO:TX:a:t=Da Capo al Segno [segno]	!	!LO:TX:b:t=Da Capo al Segno [segno]	!	!	!
4r	.	.	4r	.	4r	.	4r	.	.	.
=||	=||	=||	=||	=||	=||	=||	=||	=||	=||	=||
*-	*-	*-	*-	*-	*-	*-	*-	*-	*-	*-
!!!system-decoration: [(g1)][(g2)]{g3}
!!!RDF**dynam: p=piano
!!!RDF**kern: >=above
!!!RDF**kern: <= below
!!!AIN: 2 empty 1 viola 2 violn
!!!ENC: Anna Matuszewska
!!!END: 2020-08-22
